<?xml version="1.0" encoding="UTF-8"?>
<map version="1.10" tiledversion="1.12.1" orientation="orthogonal" renderorder="right-down" width="16" height="13" tilewidth="16" tileheight="16" infinite="0" nextlayerid="8" nextobjectid="9">
 <properties>
  <property name="indoors" type="bool" value="true"/>
 </properties>
 <tileset firstgid="1" source="../room_tilesets/tilset.tsx"/>
 <layer id="1" name="Background" width="16" height="13">
  <properties>
   <property name="depth" type="float" value="0"/>
  </properties>
  <data encoding="csv">
1,1,1,1,1,1,1,1,1,1,1,1,1,1,1,1,
1,1,1,1,1,1,1,1,1,1,1,1,1,1,1,1,
1,1,1,1,1,1,1,1,1,1,1,1,1,1,1,1,
1,1,1,1,1,1,1,1,1,1,1,1,1,1,1,1,
1,1,1,41,41,41,41,41,41,41,41,41,1,1,1,1,
1,1,1,41,41,41,41,41,41,41,41,41,1,1,1,1,
1,1,1,30,30,30,30,30,30,30,30,30,1,1,1,1,
1,1,1,30,30,30,30,30,30,30,30,30,1,1,1,1,
1,1,1,30,30,30,30,30,30,30,30,30,1,1,1,1,
1,1,1,30,30,30,30,30,30,30,30,30,1,1,1,1,
1,1,1,30,30,30,30,30,30,30,30,30,1,1,1,1,
1,1,1,30,30,30,30,30,30,30,30,30,1,1,1,1,
1,1,1,1,1,1,1,1,1,1,1,1,1,1,1,1
</data>
 </layer>
 <layer id="6" name="Paths" width="16" height="13">
  <properties>
   <property name="depth" type="float" value="1"/>
  </properties>
  <data encoding="csv">
0,0,0,0,0,0,0,0,0,0,0,0,0,0,0,0,
0,0,0,0,0,0,0,0,0,0,0,0,0,0,0,0,
0,0,0,0,0,0,0,0,0,0,0,0,0,0,0,0,
0,0,0,0,0,0,0,0,0,0,0,0,0,0,0,0,
0,0,0,0,0,0,0,0,0,0,0,0,0,0,0,0,
0,0,0,0,0,0,0,0,0,0,0,0,0,0,0,0,
0,0,0,0,0,0,0,0,0,0,0,0,0,0,0,0,
0,0,0,0,0,0,0,0,0,0,0,0,0,0,0,0,
0,0,0,0,0,0,0,0,0,0,0,0,0,0,0,0,
0,0,0,0,0,0,0,0,0,0,0,0,0,0,0,0,
0,0,0,0,0,0,0,98,99,0,0,0,0,0,0,0,
0,0,0,0,0,0,0,118,119,0,0,0,0,0,0,0,
0,0,0,0,0,0,0,0,0,0,0,0,0,0,0,0
</data>
 </layer>
 <layer id="3" name="Foreground" width="16" height="13">
  <properties>
   <property name="depth" type="float" value="2"/>
  </properties>
  <data encoding="csv">
0,0,0,0,0,0,0,0,0,0,0,0,0,0,0,0,
0,0,0,0,0,0,0,0,0,0,0,0,0,0,0,0,
0,0,0,0,237,0,0,0,0,0,0,0,0,0,0,0,
0,0,31,10,10,10,10,10,10,10,10,10,11,0,0,0,
0,0,29,0,0,0,0,0,0,0,0,0,9,0,0,0,
0,0,29,0,0,0,0,0,0,0,0,0,9,0,0,0,
0,0,29,44,0,0,0,0,0,0,237,238,9,0,0,0,
0,0,29,0,0,0,0,0,0,0,0,0,9,0,0,0,
0,0,29,0,0,0,0,0,0,0,0,0,9,0,0,0,
0,0,29,0,0,0,0,0,0,0,0,0,9,0,0,0,
0,0,29,0,0,0,0,78,79,0,0,0,9,0,0,0,
0,0,29,0,0,0,0,0,0,0,0,0,9,0,0,0,
0,0,32,12,12,12,12,12,12,12,12,12,33,0,0,0
</data>
 </layer>
 <layer id="7" name="Webs" width="16" height="13">
  <properties>
   <property name="depth" type="float" value="3"/>
  </properties>
  <data encoding="csv">
0,0,0,0,0,0,0,0,0,0,0,0,0,0,0,0,
0,0,0,0,0,0,0,0,0,0,0,0,0,0,0,0,
0,0,0,0,0,0,0,0,0,0,0,0,0,0,0,0,
0,0,0,0,0,0,0,0,0,0,0,0,0,0,0,0,
0,0,0,0,0,0,0,0,0,196,197,198,0,0,0,0,
0,0,0,0,2147483865,0,0,0,0,216,217,218,0,0,0,0,
0,0,0,0,2147483885,0,0,0,0,236,237,238,0,0,0,0,
0,0,0,0,0,0,0,0,0,0,0,0,0,0,0,0,
0,0,0,0,0,0,0,0,0,0,0,0,0,0,0,0,
0,0,0,0,0,0,0,0,0,0,0,0,0,0,0,0,
0,0,0,536871109,536871129,536871149,0,138,139,0,0,0,0,0,0,0,
0,0,0,536871110,536871130,536871150,0,0,0,0,0,0,0,0,0,0,
0,0,0,0,0,0,0,0,0,0,0,0,0,0,0,0
</data>
 </layer>
 <objectgroup id="4" name="Doors">
  <object id="1" x="50" y="96" width="10" height="11">
   <properties>
    <property name="facing" type="int" value="1"/>
    <property name="room" value="House1"/>
    <property name="x" type="int" value="66"/>
    <property name="y" type="int" value="104"/>
   </properties>
  </object>
 </objectgroup>
 <objectgroup id="2" name="Collisions">
  <object id="2" x="99" y="192" width="99" height="6"/>
  <object id="3" x="192" y="96" width="6" height="100"/>
  <object id="4" x="41" y="92" width="156" height="3"/>
  <object id="7" x="41" y="92" width="156" height="3"/>
  <object id="5" x="42" y="192" width="35" height="5"/>
  <object id="6" x="41" y="94" width="6" height="100"/>
  <object id="8" x="112" y="162" width="32" height="11"/>
 </objectgroup>
 <objectgroup id="5" name="Npcs"/>
</map>
