<?xml version="1.0" encoding="UTF-8"?>
<map version="1.10" tiledversion="1.12.1" orientation="orthogonal" renderorder="right-down" width="16" height="13" tilewidth="16" tileheight="16" infinite="0" nextlayerid="15" nextobjectid="24">
 <tileset firstgid="1" source="../room_tilesets/tilset.tsx"/>
 <layer id="1" name="Background" width="16" height="13">
  <properties>
   <property name="depth" type="float" value="0"/>
  </properties>
  <data encoding="csv">
1,1,1,1,1,1,1,1,1,1,1,1,1,1,1,1,
1,1,1,1,1,1,1,1,1,1,1,1,1,1,1,1,
1,1,1,1,1,1,1,1,1,1,1,1,1,1,1,1,
1,1,1,1,1,1,1,1,1,1,1,1,1,1,1,1,
1,1,1,21,21,21,21,21,21,21,21,21,1,1,1,1,
1,1,1,21,21,21,21,21,21,21,21,21,1,1,1,1,
1,1,1,30,30,30,30,30,30,30,30,30,1,1,1,1,
1,1,1,30,30,30,30,30,30,30,30,30,1,1,1,1,
1,1,1,30,30,30,30,30,30,30,30,30,1,1,1,1,
1,1,1,30,30,30,30,30,30,30,30,30,1,1,1,1,
1,1,1,30,30,30,30,30,30,30,30,30,1,1,1,1,
1,1,1,30,30,30,30,30,30,30,30,30,1,1,1,1,
1,1,1,1,1,1,1,1,1,1,1,1,1,1,1,1
</data>
 </layer>
 <layer id="6" name="Paths" width="16" height="13">
  <properties>
   <property name="depth" type="float" value="1"/>
  </properties>
  <data encoding="csv">
0,0,0,0,0,0,0,0,0,0,0,0,0,0,0,0,
0,0,0,0,0,0,0,0,0,0,0,0,0,0,0,0,
0,0,0,0,0,0,0,0,0,0,0,0,0,0,0,0,
0,0,0,0,0,0,0,0,0,0,0,0,0,0,0,0,
0,0,0,0,0,0,0,0,0,0,0,0,0,0,0,0,
0,0,0,0,0,0,0,0,0,0,0,0,0,0,0,0,
0,0,0,0,0,0,0,0,0,0,0,0,0,0,0,0,
0,0,0,0,0,0,0,0,0,0,0,0,0,0,0,0,
0,0,0,0,0,0,0,0,0,0,0,0,0,0,0,0,
0,0,0,0,0,0,0,0,0,0,0,0,0,0,0,0,
0,0,0,0,0,0,0,0,0,0,0,0,0,0,0,0,
0,0,0,0,0,0,0,0,0,0,0,0,0,0,0,0,
0,0,0,0,0,0,0,0,0,0,0,0,0,0,0,0
</data>
 </layer>
 <layer id="3" name="Foreground" width="16" height="13">
  <properties>
   <property name="depth" type="float" value="2"/>
  </properties>
  <data encoding="csv">
0,0,0,0,0,0,0,0,0,0,0,0,0,0,0,0,
0,0,0,0,0,0,0,0,0,0,0,0,0,0,0,0,
0,0,0,0,0,0,0,0,0,0,0,0,0,0,0,0,
0,0,31,10,10,10,10,10,10,10,10,10,11,0,0,0,
0,0,29,0,0,0,0,0,0,0,0,0,9,0,0,0,
0,0,29,43,0,0,0,0,0,0,0,0,9,0,0,0,
0,0,29,63,0,0,0,0,0,0,0,0,9,0,0,0,
0,0,29,0,0,0,0,0,0,0,0,0,9,0,0,0,
0,0,29,0,0,0,0,0,0,0,0,0,9,0,0,0,
0,0,29,0,0,0,0,0,0,0,0,0,9,0,0,0,
0,0,29,0,0,0,0,0,0,0,0,0,9,0,0,0,
0,0,29,0,0,0,0,0,0,0,0,0,9,0,0,0,
0,0,32,12,12,52,12,12,12,12,12,12,33,0,0,0
</data>
 </layer>
 <objectgroup id="4" name="Doors">
  <object id="1" x="77" y="194" width="22" height="4">
   <properties>
    <property name="facing" type="int" value="3"/>
    <property name="room" value="Town"/>
    <property name="x" type="int" value="144"/>
    <property name="y" type="int" value="260"/>
   </properties>
  </object>
  <object id="8" x="50" y="95" width="13" height="9">
   <properties>
    <property name="facing" type="int" value="3"/>
    <property name="room" value="House1_floor1"/>
    <property name="x" type="int" value="50"/>
    <property name="y" type="int" value="90"/>
   </properties>
  </object>
 </objectgroup>
 <objectgroup id="14" name="Indoor Lights"/>
 <objectgroup id="2" name="Collisions">
  <object id="2" x="99" y="192" width="99" height="6"/>
  <object id="3" x="192" y="96" width="6" height="100"/>
  <object id="4" x="41" y="92" width="156" height="3"/>
  <object id="7" x="41" y="92" width="156" height="3"/>
  <object id="5" x="42" y="192" width="35" height="5"/>
  <object id="6" x="42" y="94" width="6" height="100"/>
  <object id="23" x="77" y="195" width="22" height="3"/>
 </objectgroup>
 <objectgroup id="5" name="Npcs"/>
</map>
